X: 31909
T: Peacock's Feathers, The
R: hornpipe
M: 4/4
K: Ddorian
(3FED E>F (3DDD D>E|F>EF>A (3GAG F>G|A>dd>^c d>=cA>G|F>DA>B c2 A>G|
F2 E2 D2 D>E|F2 (3FGA G2 F>G|A2 (3ddd d2 A>G|F>D (3DDD D2:|
c2 c>A d2 (ed^cd|d>cA>^F G2 A>B|c2 A>d d>cA>G|F2 A>B c2 A>G|
F2 E>F D>A (3DDE|F>EF>A G2 F>G|A>d^c>e d>cA>G|F2 D2 D2:|

